X: 12089
T: Etruscan, The
R: mazurka
M: 3/4
K: Gmajor
|:e>d|B2 G2 e>d|B2 G2 B>d|c>A (3FGA D>F|G>B D2 e>d|
(3BcB G2 e>d|(3BcB G2 (3Bcd|c>A F>A D>F|G2 G2:|
|:F>G|^G>A F>D A>F|G>D B>G d>B|c>A F>D A>c|B>d ^c>d B>G|
^G>A F>D A2|G>D B>G d2|c>A F>D E>F|G2 G2:|

